X:405
T:Bourree
Z:Jack Campin, http://www.campin.me.uk/
F:Jack Campin's Nine-Note Tunebook
% last edit 03-02-2013
S:Cam-French Tune Book
O:trad. Auvergne
M:3/8
L:1/16
Q:3/8=69
P:ABCCD
K:F
[P:A] F4  E2|F4  E2|F6   ||
[P:B] GAGFEG|F2FGAB|c2BcBA|   GAG2F2|
      GAGFEG|F2FGAB|ccBcBA|[1 G2 c4:|\
                           [2 G6   ||
[P:C] GABAGA|F2GAGF|E2DCDE|[1 F2 G4:|\
                           [2 F6   ||
[P:D] F2ABcd|c2ABAG|F4  E2|   F6   |]

